X:1
T:SIX IRISH FOLKSONGS
T:
T:No.3.   AT THE MID HOUR OF NIGHT
T:(Air.-"Molly, my dear.")
T:(Op.78.)
T:Charles Villiers Stanford (1852-1924)
T:Thomas Moore (1779-1852)
T:SIX IRISH FOLKSONGS No.3.   AT THE MID HOUR OF NIGHT (Air.-"Molly, my dear.") (Op.78.)
T:Copyright © CPDL
T:Copyright © CPDL
T:Copyright © CPDL
T:Copyright © CPDL
T:Copyright © CPDL
C:Charles Villiers Stanford (1852-1924)
Z:Thomas Moore (1779-1852)
Z:Copyright © CPDL
%%score [ 1 2 3 4 ]
L:1/8
Q:1/4=80
M:3/4
K:Eb
V:1 treble nm="Soprano" snm="S."
V:2 treble nm="Alto" snm="A."
V:3 treble-8 transpose=-12 nm="Tenor" snm="T."
V:4 bass nm="Bass" snm="B."
V:1
!pp!"^Andante moderato" G>A | B2 B2 c2 | A4 F2 | G4 E2 | F2 E2 E2 | E4 G>A | B2 B2 c2 | %7
w: At the|mid hour of|night, when|stars are|weep- ing, I|fly To the|lone vale we|
 A4!<)!!<(! F2 | G4 E2 | F2 E2 E2 |!>(! E6!>)! | z2!p! B3 A | G2 E2 G2 | B3 c d2 | e2 f3 e | %15
w: loved, when|life shone|warm in thine|eye;|And I|think oft, if|spi- rits can|steal from the|
 d2 B2 G2 | A4 BA | G2 E2 G2 |!<(! B3 c!<)! d2 | e2 !>!f3 e | d2 B2 G2 | A6- | A2 (G2 A2) | %23
w: re- gion of|air, To re-|vis- it past|scenes of de-|light, thou wilt|come to me|there,|_ And *|
"^dim." B2 B2 c2 | A4 FF | G4 E"^’" z |!pp! .F2 .E2 .E2 | !fermata!E4 || z2 | z2 z2!f! AB | %30
w: tell me our|love is re-|mem- bered,|ev'n in the|sky.||Then I|
 c3 c d2 | B4 B2 | (B!>(!A G2)!>)! G2 |!p! F2 G2 F2 | B2!p! G3 A | B3 B c2 | A4 F2 | G4 E2 | %38
w: sing the wild|song 'twas|once _ _ such|plea- sure to|hear, When our|voi- ces com-|ming- ling|breath'd, like|
 F2 E2 E2 | !fermata!E4!pp! (B>A) | G2 E2 G2 | B4!<(! cd!<)! | e2 f3 e |!>(! d3 B!>)! G2 | A6- | %45
w: one, on the|ear; And, _|Ech- o far|off thro' the|vale my sad|or- i- son|rolls,|
 A2 z2 z2 | z2 (B3 A) | G2"^cresc." E2 G2 | B3 c d2 | e2!f! f3 e | d2!>(! B2 G2!>)! | A6- | %52
w: _|I _|think, oh my|love! 'tis thy|voice from the|King- dom of|Souls|
"^Più lento." A2!pp! G3 A | B3 B c2 | A6 | z2 z2 B2 | G6 | z2 z2 E2 |"^rall." F2 E2 E2 | %59
w: _ Faint- ly|an- swer- ing|still,|the|notes|that|once were so|
 !fermata!E6 || %60
w: dear.|
V:2
!pp! E>F | G2 F2 E2 | F4 F2 | E4 E2 | C2 C2 C2 | (C2 B,2) E>E | E2 D2 C2 | (D2!<(! C2)!<)! B,2 | %8
w: At the|mid hour of|night, when|stars are|weep- ing, I|fly _ To the|lone vale we|loved, _ when|
 B,4 B,2 | A,2 G,2 A,2 |!>(! B,2 G,2 A,2 | B,2 C2!>)! D2 | E6 | F4 F2 | G2 F2 =A2 | B2 F2 E2 | %16
w: life shone|warm in thine|eye; And I|think, that if|spi-|rits can|steal from the|re- gion of|
 (E2 C2) B,D | E2 B,2 E2 |!<(! F3 F!<)! F2 | G2 !>!=A2 A2 | =A2 G2 E2 | E4 E2 | (=D4 C2 | %23
w: air, _ To re-|vis- it past|scenes of de-|light, thou wilt|come to me|there, And|tell _|
"^dim." B,2) F2 =E2 | F4 FF | D4 C"^’" z |!pp! C2 C2 C2 | !fermata!B,4 ||!f! G>A | B3 B c2 | %30
w: _ me our|love is re-|nmn- bered,|ev'n in the|sky.|Then I|sing the wild|
 A4 F2 | G4 E2 | !>!F2 !>!E2 !>!E2 | !>!E6- | E2!p! G2 F2 | G2 F2 G2 | (G2 FE) (ED) | E4 E2 | %38
w: song 'twas|once such|plea- sure to|hear,|_ When our|voi- ces com-|ming- * * ling *|breath'd, like|
 _D2 C3 A, | !fermata!B,4 z2 | z2!pp! G3 G | F2 D2 F2 | (EF) (GA) B2 | B2 D2 (ED) | C2 D3 C | %45
w: one, on the|ear;|And, as|Ech- o far|off * thro' * the|vale, thro' the _|vale my sad|
 B,2 F2 G2 | E4 F2 | E2"^cresc." B,2 B,2 | G3 G G2 | G2!f! A2 =A2 | B2!>(! F2 E2!>)! | (F2 E4) | %52
w: or- i- son|rolls, I|think, oh my|love! 'tis thy|voice from the|King- dom of|Souls, _|
!pp! E4 E2 | A3 G A2 | G2 F2 E2 | (D6- | D2 E2) _D2 | C4- CC |"^rall." _D2 C2 A,2 | !fermata!B,6 || %60
w: Faint- ly|an- swer- ing,|an- swer- ing|still,|_ _ the|notes _ that|once were so|dear.|
V:3
!pp! e>e | e2 e2 c2 |!pp! c4 B2 | B4 c2 | A2 G2 A2 | (A2 F2) E>E | G2 F2 D2 | (F2!<(! E2)!<)! A2 | %8
w: At the|mid hour of|night, when|stars are|weep- ing, I|fly _ To the|lone vale we|loved, _ when|
 G2 (e3 d) | c2 c2 c2 |!>(! G2 E2 F2 | G2 A2!>)! B2 | B6 | B3 A B2 | B2 =A2 c2 | d2 d2 B2 | A4 FB | %17
w: life shone _|warm in thine|eye; And I|think, that if|spi-|* rits can|steal from the|re- gion of|air, To re-|
 B2 G2 B2 |!<(! B3 =A!<)! =B2 | c2 !>!c3 c | d2 d2 _d2 | (_d2 c2) B2 | A6- |"^dim." A2 G2 G2 | %24
w: vis- it past|scenes of de-|light, thou wilt|come to me|there, * And|tell|_ me our|
 (A2 B2) cc | d4 e"^’" z |!pp! A2 G2 A2 | !fermata!G4 || z2 | z2!f! e3 c | f2 e2 d2 | d4 _d2 | %32
w: love _ is re-|mem- bered,|ev'n in the|sky.||Then I|sing the wild|song 'twas|
!>(! c4!>)! c2 |!p! c2 B2 A2 | G2!p! e2 d2 | _d4 ed | c4 (cB) | B4 A2 | G2 A3 F | !fermata!G4 z2 | %40
w: once such|plea- sure to|hear, When our|voi- ces com-|ming- ling *|breath'd, like|one, on the|ear,|
 z2!pp! e3 e | d2 B2 B2 | B4 Be | f4!<(! cd | e2!<)! f3 e |!pp! d3 B G2 | (A2 c2) d2 | %47
w: And, as|Ech- o far|off thro' the|vale, thro' the|vale my sad|or- i- son|rolls, * I|
 e2"^cresc." G2 E2 | e3 c =B2 |!f! c4 ee | f2!>(! d2 _d2!>)! | (_d2 c4) |!pp! c4 c2 | f2 _f2 e2 | %54
w: think, oh my|love! 'tis thy|voice from the|King- dom of|Souls, _|Faint- ly|an- swer- ing,|
 e2 d2 c2 | (B6- | B2 c2) B2 | A4- AA |"^rall." A2 A2 F2 | !fermata!G6 || %60
w: an- swer- ing|still,|_ _ the|notes _ that|once were so|dear.|
V:4
 z2 | z6 | z2 (F,2 D,2) | (F,2 D,2) C,2 | F,,2 C,2 A,,2 | E,4 C,>C, | B,,6- | %7
w: ||When _|stars _ we|weep- ing, I|fly To the|vale|
 B,,B,,!<(! C,2!<)! D,2 | E,4 G,2 | A,2 C2 A,2 |!>(! E,6-!>)! | E,6- | E,2 G,2 E,2 | D,2 D,2 D,2 | %14
w: _ we loved, when|life shone|warm in thine|eye;|_|* and if|spi- rits can|
 C,4 C,C, | B,,2 B,,2 G,2 | F,4 D,B,, | E,3 E, E,2 |!<(! D,2 D,2!<)! D,2 | C,2 !>!=A,3 G, | %20
w: steal from the|re- gion of|air, To re-|vis- it past|scenes of de-|light, thou wilt|
 ^F,2 G,2 B,2 | A,4 G,2 | (F,4 E,2 |"^dim." D,2) _D,2 C,2 | (F,2 G,2) A,A, | B,4 C"^’" z | %26
w: come to me|there, And|tell _|_ me our|love _ is re-|mem- bered,|
!pp! F,,2 C,2 A,,2 | !fermata!E,4 ||!f! E,>F, | G,3 G, A,2 | F,4 B,2 | (G,2 F,2) G,2 | %32
w: ev'n in the|sky.|Then I|sing the wild|song 'twas|once _ such|
!>(! A,4!>)! A,,2 |!p! =A,,2 B,,2 C,2 | E,6- | E,2 E,2 E,2 | E,4 E,2 | (E,2 _D,2) C,2 | %38
w: plea- sure,|plea- sure to|hear,|_ When our|voi- ces|breath'd, * like|
 B,,2 C,2 A,,2 | !fermata!E,4 z2 | z6 | z2!pp! B,3 A, | G,2 E,2 G,2 | B,4 z2 | z6 | %45
w: one, * the|ear,||And, as|Ech- o far|off||
 z2!>(! D2!>)! B,2 | C2 F,2 B,2 | E,6 | z2"^cresc." E,2 D,2 |!f! C,4 CC | B,2!>(! B,2 B,2!>)! | %51
w: my sad|or- i- son|rolls,|'Tis thy|voice from the|King- dom of|
 A,6 |!pp! F,4 E,2 | D,2 _D,2 C,2 | F,6 | z2 z2 G,2 | E,6 | z2 z2 A,2 |"^rall." _D,2 A,,2 C,2 | %59
w: Souls,|Faint- ly|an- swer- ing|still,|the|notes|that|once were so|
 !fermata!E,6 || %60
w: dear.|

